X:1171
T:Bouzer Castle.
C:John Malchair's Third Collection of Tunes
F:https://www.vwml.org/record/Malchair/3619/p117
F:www.vwml.org/topics/historic-dance-and-tune-books/Malchair
Z:Eric Conrad Feb 2020
N:NB1 Repeats added.
N:NB2 MS has middle C, raised here one octave to high C.
W:1695. an other at p.134.
M:6/8   % unlike the previous tune, this was marked 6/4.  Changed here to 6/8.
L:1/8   % original was M:6/4 with L:1/4
K:C
P:A
|: "_NB1"C | E2G (GE)G | A2B (cA)c | E2G (GE)C | D3 G,3 |
E2G (GE)G | A2B (cA)c | (ec)e (dB)d | c3 C2 :|
P:B
|: "_NB2"c | e2f (ge)g | B2c (dB)d | E2G (GE)G | D3 G,3 |
E2G (GE)G | A2B (cA)c | (ec)e (dB)G | c3 C2 :|


